X:1
T:Title
%%score 1 { 2 | 3 }
L:1/8
Q:1/4=90
M:4/4
K:E
V:1 treble nm="Grand Piano, Soprano"
V:2 bass nm="Choir Pad, Always Near"
V:3 bass 
V:1
 E>[EF] [EG]>[EG] [EG][EG] [EG]2 | E[EG] [DF]>[DF] [DF][DF] [DF]2 | %2
w: By~D.~Hayden~Lloyd * * * * * *||
 E>[EG] [GB]>[GB] [GB][Ac][GB][EG] | E[EG] [DF]>[DB] [E^A][Ec] [DB]2 | %4
w: ||
 [EG]>[FA] [GB]>[GB] [GB][FA] [EG]2 | E[EF] [EG]>[FA] [EG]>[DF] E2 | E>[EG] [GB]6 | %7
w: |||
 [FA]>[EG] [Ac]6 | [ce]>[Bd] [GB]6 | [FA]>[EG] [DF]6 | E>[EG] [GB]6 | [FA]>[EG] [Ac]6 | %12
w: |||||
 [Ee]>[Ec] [EB]2- [EB][EG] [EG]2- | [EG][DF] E6- | E2 z2 z4 |] %15
w: |||
V:2
 G,>A, B,>B, B,B, B,2 | G,B, B,>A, A,A, A,2 | G,>B,[K:treble] E>E EE E2 | G,B, B,>B, C^A, B,2 | %4
 B,>B,[K:treble] E>E EB, B,2 | ^A,A, B,>B, B,>=A, G,2 | z4[K:treble] E>E E2 | z4 E>E E2 | %8
 z4 E>E E2 | z4 B,>B, B,2 | z4 E>E E2 | z4 E>E E2 | C>A,[K:bass] G,2- G,B, B,2- | B,A, G,6- | %14
 G,2 z2 z4 |] %15
V:3
 E,>E, E,>E, E,E, E,2 | E,E, B,,>B,, B,,B,, B,,2 | E,>E, E,>E, E,E, E,2 | E,E, F,>F, F,F, z2 | %4
 E,>E, E,>E, E,E, E,2 | C,C, B,,>B,, B,,>B,, E,2 | z4 E,>E, E,2 | z4 A,>A, A,2 | z4 E,>E, E,2 | %9
 z4 B,,>B,, B,,2 | z4 E,>E, E,2 | z4 A,>A, A,2 | A,,>A,, B,,2- B,,B,, B,,2- | B,,B,, E,6- | %14
 E,2 z2 z4 |] %15

